X:1
T:F Major Samuel Babcock, 1795
T:John Newton, 1759 Praise for Redeeming Love          87. 87. 77.
T:Omicron
T:Transcribed from The Middlesex Harmony, 1795.
%%score [ 1 2 3 4 ]
L:1/8
Q:1/4=100
M:2/4
K:F
V:1 treble nm="Tr." snm="Tr."
V:2 treble nm="C." snm="C."
V:3 treble-8 nm="T." snm="T."
V:4 bass nm="B." snm="B."
V:1
 A2 A2 | c3 d/e/ | f2 d2 | c2 A2 || d2 d2 | e2 fd | c2 =B2 | c4 || c2 B2 | A2 c2 | d2 de | f2 fd || %12
w: 1.~Let us|love, and *|sing, and|won- der,|Let us|praise the *|Sa- vior's|name!|He has|hushed the|law's loud *|thun- der, *|
w: 2.~Let us|love the *|Lord that|bought us,|Pi- tied|us when *|e- ne-|mies;|Called us|by his|grace, and *|taught us, *|
 c2 A2 | c2 f2 | d2 c2 | A4 |: c2 c2 | c2 c2 | A2 cf | c4 || d2 dB | cd/e/ fd | c2 B2 | A4 :| %24
w: He has|quenched Mount|Si- nai's|flame;|He has|washed us|with his *|blood,|He has *|brought * * us *|nigh to|God.|
w: Gave us|ears, and|gave us|eyes:|He has|washed us|with his *|blood,|He pre- *|sents * * our *|souls to|God.|
V:2
 c2 A2 | F3 B | A2 F2 | A2 c2 || B2 B2 | c2 AF | E2 G2 | E4 || A2 B2 | c2 A2 | A2 BA | F2 FG || %12
w: 3.~Let us|sing though|fierce temp-|ta- tions|Threa- ten|hard to *|bear us|down!|For the|Lord, our|strong sal- *|va- tion, *|
w: 4.~Let us|won- der,|grace and|jus- tice,|Join and|point to *|mer- cy's|store:|When through|grace in|Christ our *|trust is, *|
 A2 A2 | A2 FG | B2 c2 | c4 |: E2 ED | E2 FG | A2 c2 | c4 || B2 G2 | AF FD | E2 G2 | c4 :| %24
w: Holds in|view the *|con- queror's|crown:|He who *|washed us *|with his|blood.|Soon will|bring * us *|home to|God.|
w: Jus- tice|smiles and *|asks no|more:|He who *|washed us *|with his|blood,|Has se-|cured * our *|way to|God.|
V:3
 F2 F2 | A3 B | c2 d>e | f2 c2 || d2 B2 | c2 df | e2 d2 | c4 || f2 d2 | c2 cA | F2 GA | B2 B2 || %12
w: 5.~Let us|praise, and|join the *|cho- rus|Of the|saints, en- *|throned on|high;|Here they|trus- ted *|him be- *|fore us,|
w: 6.~Hark! the|name of|Je- sus *|soun- ded|Loud, from|gol- den *|harps a-|bove!|Lord, we|blush, and *|are con- *|foun- ded,|
 A2 c2 | f2 c2 | BA G2 | F4 |: G2 GA | G2 FE | F2 GA/B/ | A4 || F2 GB | Ac dB | A2 G2 | F4 :| %24
w: Now their|prai- ses|fill * the|sky:|Thou hast *|washed us *|with thy * *|blood,|Thou art *|wor- * thy, *|Lamb of|God!|
w: Faint our|prai- ses,|cold * our|love!|Wash our *|wouls and *|songs with * *|blood,|For by *|thee * we *|come to|God.|
V:4
 F,2 F,2 | F,3 F, | F,2 F,2 | F,2 A,2 || G,2 G,2 | C2 F,2 | G,2 G,2 | C,4 || F,2 G,2 | A,2 F,2 | %10
 D,2 D,2 | B,,2 B,,2 || F,2 F,2 | F,2 F,2 | B,,2 C,2 | F,4 |: C,2 C,2 | C,2 C,2 | D,2 C,2 | F,4 || %20
 B,2 G,2 | A,2 F,2 | C2 C,2 | F,4 :| %24

